X:764
T:Arrow Waltz,The. CJF.204
M:3/8
L:1/16
Q:60
S: C.J.Fox MS, 1829/33, Beverley,E.Yorks.
R:Waltz
O:England
A:East Yorkshire
B:Kidson Coll.Mitchell Lib.M1805
Z:P J Headford 2000
K:C
G2|c2{d'}c'2G2|A2{^g}a2E2|F2D2B2|c2e2 G2|c2{b}c'2 G2|A2{^g}a2 E2|\
(FE).F.G.A.B|c4:||:!e2|"cres:".f2.d'2f2|.e2.c'2 e2|
d2G2g2|e2c2 e2|.f2.d'2 f2|e2c'2 e2|d2b2g2|c'4:||:!g2|\
.a(cBc).a.c|.g(cBc).g.c|(fe).f.d(cB)|
(cdefg^g)|!.a(cBc).a.c|.g(cBc).g.c|(fe).f.d(cB)|c4:||:!"f"c'2|\
(bd')(bg)(fd)|(cdef)(ag)|(Bcde)(gf)|
(^d2e2) c'2|!(bd').b.g(fd)|(cdef)(ag)|(fe)(dc)(Bd)|c4:||
